X: 2156
T: DONALD MACGUGAN'S RANT
Q: "Reel."
R: Reel.
%R: reel
B: James Kerr "Merry Melodies" v.2 p.18 #156
Z: 2016 John Chambers <jc:trillian.mit.edu>
N: The 2nd strain has an initial but no final repeat; fixed.
M: C
L: 1/8
K: D
uA |\
d2(de) d/d/d (dc) | BABc dAAB |\
d2(de) d/d/d (dc) | BABc d3 ::\
uA |\
dBAF A/A/A A2 | gfed edBc |\
dBAF A/A/A A2 | BABc d3 :|

%%sep 1 1 500
%%sep 1 1 500

